X: 1
T: Headlands, The
C: Ronnie Cooper (1934-1982)
S: Source: RCC / history FC
R: March
M: 2/4
L: 1/8
Q: "Bowings are suggestions"
K: A
"^A"[|]\
     (e>d)   |  "A"dc  "E/A"BA |"A"A<c    "A7"E>A | "D"FA    "A/D"df | "A"e2  \
 "E7"(ef/g/) |  "A"a>e "E/A"fa |"A"fe    "F#m"dc  |"B7"c>B "F#/B7"Ac |"Bm"B2 .|
  "E7"e>d    |  "A"dc  "E/A"BA |"A7"A<c "E/A7"E>A | "D"FA    "A/D"df | "D"a2  \
"D#°"(gf)    |"E/A"ea  "F#m"Ac |"Bm"Bf    "E7"ed  | "A"c2      "D"A2 | "A"A2 :|
"^B"|:\
  "E7"(ef/g/) |"A"a>e "E/A"fa | "A"ce  "A7"cA  | "D"dA    "A/D"df | "A"e2  \
  "E7"(ef/g/) |"A"a>e "E/A"fa | "A"fe "F#m"dc  |"B7"c>B "F#/B7"Ac |"Bm"B2 .|
[1"E7"(ef/g/) |"A"a>e "E/A"ea | "A"ce  "A7"cA  | "D"dA    "A/D"df | "D"a2  \
  "D#°"g>f    |"A"ea  "F#m"Ac |"Bm"Bf  "E7"ed  | "A"c2      "D"A2 | "A"A2 :|
[2" E7"e>d    |"A"dc  "E/A"BA |"Em"A<c "A7"E>A | "D"FA    "A/D"df | "D"a2  \
  "D#°"gf     |"A"ea  "F#m"Ac |"Bm"Bf  "E7"ed  | "A"c2      "D"A2 | "A"A2  |]

